Sources/FrostedUI/Resources/Icons.xcassets/rectangleStack32.imageset/rectangle-stack-32.svg

<svg width="32" height="32" viewBox="0 0 32 32" fill="none" xmlns="http://www.w3.org/2000/svg" data-fui-icon="true">
  <path
    d="M26 20.6143C28.0711 20.6143 29.75 22.2932 29.75 24.3643V25.4551C29.7497 25.8691 29.4141 26.2051 29 26.2051C28.586 26.2051 28.2503 25.8691 28.25 25.4551V24.3643C28.25 23.1216 27.2426 22.1143 26 22.1143H6C4.75736 22.1143 3.75 23.1216 3.75 24.3643V25.4551C3.74974 25.8691 3.41405 26.2051 3 26.2051C2.58595 26.2051 2.25026 25.8691 2.25 25.4551V24.3643C2.25 22.2932 3.92893 20.6143 6 20.6143H26ZM26 5.25C28.0711 5.25 29.75 6.92893 29.75 9V13.6367C29.7498 15.7076 28.0709 17.3867 26 17.3867H6C3.99357 17.3867 2.3552 15.8106 2.25488 13.8291L2.25 13.6367V9C2.25 6.92893 3.92893 5.25 6 5.25H26ZM6 6.75C4.75736 6.75 3.75 7.75736 3.75 9V13.6367L3.76172 13.8662C3.87685 15.0009 4.83496 15.8867 6 15.8867H26C27.2425 15.8867 28.2498 14.8792 28.25 13.6367V9C28.25 7.75736 27.2426 6.75 26 6.75H6Z"
    fill="currentColor"
  />
</svg>

<svg xmlns="http://www.w3.org/2000/svg" width="32" height="32" fill="none" data-fui-icon="true" viewBox="0 0 32 32"><path fill="currentColor" d="M26 20.614a3.75 3.75 0 0 1 3.75 3.75v1.091a.75.75 0 0 1-1.5 0v-1.09a2.25 2.25 0 0 0-2.25-2.25H6a2.25 2.25 0 0 0-2.25 2.25v1.09a.75.75 0 0 1-1.5 0v-1.09A3.75 3.75 0 0 1 6 20.614zM26 5.25A3.75 3.75 0 0 1 29.75 9v4.637a3.75 3.75 0 0 1-3.75 3.75H6a3.75 3.75 0 0 1-3.745-3.558l-.005-.192V9A3.75 3.75 0 0 1 6 5.25zM6 6.75A2.25 2.25 0 0 0 3.75 9v4.637l.012.23A2.25 2.25 0 0 0 6 15.886h20a2.25 2.25 0 0 0 2.25-2.25V9A2.25 2.25 0 0 0 26 6.75z"/></svg>
